X:53206
F:http://www.vwml.org/record/HAM/5/32/6
%%VWML:HAM-5-32-6-0
T:Nobleman and Thresherman
S:Mrs Marina Russell, Upwey coll. HED Hammond
O:England
A:Dorset
N:Transcribed from HAM-02-227.gif
F:HAM-05-32-06.abc
Z:EFDSS;PJHeadford
M:C
L:1/4
Q:2/4=60
K:C
D|D>E FG|AB cc|dd cA&xxxB|(AFD)z/C/|D>E FG|AB cc|
dd cB|A3 D|D>E FG|(AB) cB/ c/|d2 B/A/ G|A3 A|
"^a"d>c BG|AF2 D|E2 DC|D3||"^Alternative a"d>B BG||
W:Transcribed from HAM-02-227.gif
W:[In the tune MS, to the left of the title:] 501 [to the right:] Mrs Russell
W:The MIDI file HAM-05-32-06.mid has two verses, the second using the alternative note and bar.
